dist/svg/arrow-right.svg

<!-- Generated by Trend Micro Style Portal -->
<svg version="1.1" xmlns="http://www.w3.org/2000/svg" width="16" height="16" viewBox="0 0 16 16">
  <title>arrow-right</title>
  <path fill="rgb(34,34,34)" d="M15 7.976l-5.707 5.739-1.418-1.41 3.316-3.335h-10.191v-2h10.158l-3.296-3.283 1.412-1.416 4.716 4.699h0.009v0.009z"></path>
</svg>

<svg width="16" height="16" viewBox="0 0 16 16" fill="rgb(34, 34, 34)" xmlns="http://www.w3.org/2000/svg"><title>arrow-right</title><path d="M15 7.976L9.293 13.715L7.875 12.305L11.191 8.97H1V6.97H11.158L7.862 3.687L9.274 2.271L13.99 6.97H13.999V6.979L15 7.976Z" fill="rgb(34, 34, 34)" fill-opacity="1.00"/></svg>
